X:1
T:A Light Along the Way
T:A Light Along the Way
T:Joseph Lincoln Hall
T:Eliza Edmunds Hewitt, 1903
T:Public Domain Courtesy of the Cyber Hymnal™
T:Public Domain Courtesy of the Cyber Hymnal™
C:Joseph Lincoln Hall
Z:Public Domain
Z:Courtesy of the Cyber Hymnal™
%%score ( 1 2 ) ( 3 4 )
L:1/8
Q:1/4=103
M:6/8
K:C
V:1 treble 
V:2 treble 
V:3 bass 
V:4 bass 
V:1
 [EG] | [Ec]2 [EB] [EA]2 [CE] | [EG]2 [^D^F] [=D=F]2 [FB] | [Fd]2 [FB] [FA]2 [FB] | %4
w: 1.~The|Lord hath made this|world of ours Most|beau- ti- ful and|
w: 2.~So|ma- ny need a|help- ing hand, A|kind- ly word of|
w: 3.~Some|lives shine out like|bea- cons grand, Some|seem but can- dles|
 [Ec]3- [Ec]2 [Ec] | [Fc]2 [FA] [Fc]2 [FA] | [FA]2 [EG] [EG]2 [_EA] | [DB]2 [Gd] [^FB]2 [FA] | %8
w: bright: * The|gold- en sun to|rule by day, The|moon and stars by|
w: cheer, * To|tell them of the|might- y Friend Whose|grace is al- ways|
w: small, * But|if we tru- ly|shine for Him, The|Lord hath need of|
 [DG]3- [DG]2 [DG] | [FB]2 [FA] [DG]2 D | [CF]2 [CE] [CE]2 [EG] | [^FA]2 [FA] [FB]2 [Fc] | %12
w: night; * But|souls are wan- d’ring|far from Him, In|dark- ened paths a-|
w: near. * O|make me prompt to|hear Thy voice, And|rea- dy to o-|
w: all. * O|may His Spir- it|fill my soul And|lead me, day by|
 [=FB]3- [FB]2 [FG] | [Ee]2 [Fd] [Ec]2 [EG] | [GB]2 [FA] [Fc]2 [FA] | [EG]2 [Ec] [Fc]2 [FB] | %16
w: stray; * So|make me, Sav- ior,|more and more, A|light a- long the|
w: bey, * That|I may be, to|sad- dened hearts, A|light a- long the|
w: day, * That,|tho’ un- wor- thy,|I shall be A|light a- long the|
 [Ec]3- [Ec]2 ||"^Refrain" [EG] | [EG]2 [CE] [EG]2 [Ec] | [Ge]3- [Ge]2 [Gc] | %20
w: way. *||||
w: way. *|A|light a- long the|way, * Make|
w: way. *||||
 [Fc]2 [FA] [Fc]2 [FA] | [EG]3- [EG]2 [EG] | [FB]2 [FA] [DF]2 [FB] | [EA]2 [EG] [Ec]2 [Ec] | %24
w: ||||
w: me, dear Lord, I|pray; * Love’s|hap- py rays Show|forth Thy praise, A|
w: ||||
 [=Fd]2 [FA] [FB]2 [Fc] | [=Fd]3- [Fd]2 [EG] | [EG]2 [CE] [EG]2 [Ec] | [Ge]3- [Ge]2 [Gc] | %28
w: ||||
w: light a- long the|way. * A|light a- long the|way, * Make|
w: ||||
 [Fc]2 [FA] [Fc]2 [FA] | [EG]3- [EG]2 [EG] | [FB]2 [FA] [DF]2 [FB] | [EA]2 [EG] [Ec]2 [Ec] | %32
w: ||||
w: me, dear Lord, I|pray; * Love’s|hap- py rays Show|forth Thy praise, A|
w: ||||
 [Fd]2 [FA] [FB]2 [FG] | [Ec]3- [Ec]2 |] %34
w: ||
w: light a- long the|way. *|
w: ||
V:2
 x | x6 | x6 | x6 | x6 | x6 | x6 | x6 | x6 | x5 D | x6 | x6 | x6 | x6 | x6 | x6 | x5 || x | x6 | %19
 x6 | x6 | x6 | x6 | x6 | x6 | x6 | x6 | x6 | x6 | x6 | x6 | x6 | x6 | x5 |] %34
V:3
 [C,C] | [C,G,]2 [C,G,] [C,G,]2 [C,G,] | G,2 [G,A,] [G,B,]2 [G,D] | [G,B,]2 [G,D] [G,C]2 [G,D] | %4
 [C,C]3- [C,C]2 [C,G,] | [F,A,]2 [F,C] [F,A,]2 [F,C] | [C,C]2 [C,C] [C,C]2 [C,G,] | %7
 [D,G,]2 [D,B,] [D,D]2 [D,C] | [G,B,]3- [G,B,]2 [G,B,] | [G,D]2 [G,C] [G,B,]2 [G,B,] | %10
 [C,A,]2 [C,G,] [C,G,]2 [E,C] | [D,C]2 [D,C] [D,C]2 [D,C] | [G,D]3- [G,D]2 [G,B,] | %13
 [C,C]2 [D,B,] [E,C]2 [C,C] | [F,C]2 [F,C] [F,A,]2 [F,C] | [G,D]2 [G,D] [G,D]2 [G,D] | %16
 [C,C]3- [C,C]2 || [C,C] | [C,C]2 [C,G,] [C,C]2 [C,G,] | [C,C]3- [C,C]2 [E,_B,] | %20
 [F,A,]2 [F,C] [F,A,]2 [F,C] | [C,C]3- [C,C]2 [C,C] | [G,D]2 [G,C] [G,B,]2 [G,D] | %23
 [C,C]2 [C,C] [C,G,]2 [C,C] | [D,C]2 [D,C] [D,C]2 [D,C] | [G,B,]3- [G,B,]2 [C,C] | %26
 [C,C]2 [C,G,] [C,C]2 [C,G,] | [C,C]3- [C,C]2 [E,_B,] | [F,A,]2 [F,C] [F,A,]2 [F,C] | %29
 [C,C]3- [C,C]2 [C,C] | [G,D]2 [G,C] [G,B,]2 [G,D] | [C,C]2 [C,C] [C,G,]2 [C,C] | %32
 [F,A,]2 [F,D] [G,D]2 [G,B,] | [C,G,C]3- [C,G,C]2 |] %34
V:4
 x | x6 | G,2 x4 | x6 | x6 | x6 | x6 | x6 | x6 | x6 | x6 | x6 | x6 | x6 | x6 | x6 | x5 || x | x6 | %19
 x6 | x6 | x6 | x6 | x6 | x6 | x6 | x6 | x6 | x6 | x6 | x6 | x6 | x6 | x5 |] %34

